!!!OTL: Die Schlaue.
!!!OTL-incipit: IHREN LIEBSTEN ZU ERWARTEN
!!!ARE: Europa, Mitteleuropa, Deutschland, Pfalz
!!!SCT: Z0170
!!!YEM: Copyright 1995, estate of Helmut Schaffrath.
**kern	**text
*ICvox	*
*M6/8	*
*k[b-]	*
*F:	*
=1	=1
!LO:TX:a:t=Pfalʒiſch.	!
{4f	Jh-
8f	-ren
4f	Lieb-
8a	-ſten
=2	=2
4a	ʒu
8cc	er-
(8ccL	-war-
8b-J)	.
8a}	-ten,
=3	=3
{4g	ſchlich
8g	das
4g	Mäd-
8g	-chen
=4	=4
4a	in
8g	den
4f	Gar-
8f}	-ten,
=5	=5
{4dd	in
8dd	den
8ddL	ſtil-
8eeJ	.
8ff	-len
=6	=6
4cc	Bu-
8cc	-chen-
4cc	-hain
8r}	.
=7	=7
{4b-	ſchlich
8b-	das
8dd	hol-
8cc	.
8b-	-de
=8	=8
8b-L	Mäd-
8aJ	.
8a	-chen
4a	ein.
8r}	.
=9	=9
{8g	La
8g	la
8g	la
8b-L	.
8aJ	.
8g	.
=10	=10
8fL	.
8aJ	.
8cc	.
8ccL	.
8b-J	.
8a}	.
=11	=11
{8g	la
8g	.
8g	.
8b-L	.
8aJ	.
8g	.
=12	=12
(8fL	la
8aJ)	.
8g	la
4f	la!
8r}	.
==	==
!!!AGN: Erzaehlung, lustige Romanze
!!!ONB: ESAC (Essen Associative Code) Database: ZUCCAL
!!!AMT: compound duple
!!!AIN: vox
!!!EED: Helmut Schaffrath
!!!EEV: 1.0
!!!GTL: II. Erzahlungen, lustige Romanzen, Kinder-Lieder und episch-lyrische Volks-Lieder.
!!!URL-scan: https://www.digitale-sammlungen.de/de/view/bsb11160571?page=319
!!!ENC: Anna Maria Matuszewska
!!!EEV: 2025/01/28
*-	*-
